X:1
T:The Kingdom over Yonder
T:The Kingdom over Yonder
T:James Henry Fillmore, Sr.
T:Andrew A. Veatch, 1890
T:Public Domain Courtesy of the Cyber Hymnal™
T:Public Domain Courtesy of the Cyber Hymnal™
C:James Henry Fillmore, Sr.
Z:Public Domain
Z:Courtesy of the Cyber Hymnal™
%%score ( 1 2 ) ( 3 4 )
L:1/8
Q:1/4=110
M:4/4
K:A
V:1 treble 
V:2 treble 
V:3 bass 
V:4 bass 
V:1
 [CE]2 | [Ec]3 [Ec] [DB]2 [CA]2 | [EG]2 [DF]2 [CE]2 [CE]2 | [DF]2 [DG]2 [EA]2 [FB]2 | %4
w: 1.~This|world is fair, this|life is sweet, Where|na- ture’s charms sur-|
w: 2.~I|watch on dream- y|shore and sea, The|sun- beams glance and|
w: 3.~I|hear sweet words and|ten- der vows, From|dear com- pan- ions|
 [EA]4 [EG]2 E2 | [Ec]3 [Ec] [DB]2 [CA]2 | [EG]2 [DF]2 [CE]2 [CE]2 | [DF]2 [DG]2 [EA]2 (BA) | %8
w: round us; And|warmth and beau- ty|blend and meet Har-|mo- nious- ly a- *|
w: quiv- er, And|think how fair the|day must be That|shines a- cross the *|
w: prov- ing By|ev- ery sign af-|fec- tion knows, How|ear- nest is their *|
 [EG]4 !fermata![EA]2 [EA]2 | [EG]3 [EA] [EB]2 [EB]2 | [EA]3 [EB] [Ac]2 [Ac]2 | %11
w: round us; But|bright- er vi- sions|of de- light, Come|
w: riv- er. I|hear the sea- son’s|change- ful notes, As|
w: lov- ing; Then|muse up- on that|high- er love, Which|
 [GB]2 [Ac]2 [Bd]2 ([ce][Bd]) | ([Ac][GB][Ac][Bd]) [GB]2 E2 | [Ec]3 [Ec] [EB]2 [EA]2 | %14
w: o’er us as we *|pon- * * * der, That|bless- èd realm be-|
w: ’round the world they *|wan- * * * der, And|think what grand- er|
w: speaks in lan- guage *|fond- * * * er, Where|spir- its meet and|
 [EG]2 [DF]2 [CE]2 ([CE][CE]) | [DF]2 [DG]2 [EA]2 (BA) | [EG]4 !fermata![EA]2 || %17
w: yond our sight, The *|king- dom o- ver *|yon- der.|
w: mu- sic floats In~the *|king- dom o- ver *|yon- der.|
w: ser- aphs move, In~the *|king- dom o- ver *|yon- der.|
"^Refrain" [EA][EA] | [EG]2 [EB]4 [EB][EB] | [EA]2 [Ac]4 [Ac][Ac] | [GB]2 [Ac]2 [Bd]2 ([ce][Bd]) | %21
w: O- ver|yon- der, o- ver|yon- der, In the|king- dom o- ver *|
w: O- ver|yon- der, o- ver|yon- der, In the|king- dom o- ver *|
w: O- ver|yon- der, o- ver|yon- der, In the|king- dom o- ver *|
 ([Ac][GB][Ac][Bd]) [GB]2 E2 | [Ec]3 [Ec] [EB]2 [EA]2 | [EG]2 [DF]2 [CE]2 [CE][CE] | %24
w: yon- * * * der, That|bless- èd realm be-|yond our sight, In the|
w: yon- * * * der, And|think what grand- er|mu- sic floats In the|
w: yon- * * * der, Where|spir- its meet and|ser- aphs move, In the|
 [DF]2 [DG]2 [EA]2 (BA) | [EG]4 !fermata![EA]2 |] %26
w: king- dom o- ver *|yon- der.|
w: king- dom o- ver *|yon- der.|
w: king- dom o- ver *|yon- der.|
V:2
 x2 | x8 | x8 | x8 | x6 E2 | x8 | x8 | x6 F2 | x8 | x8 | x8 | x8 | x6 E2 | x8 | x8 | x6 F2 | x6 || %17
 x2 | x8 | x8 | x8 | x6 E2 | x8 | x8 | x6 F2 | x6 |] %26
V:3
 [A,,A,]2 | [A,,A,]3 [A,,A,] [A,,E,]2 [A,,E,]2 | [A,,E,]2 (F,G,) [A,,A,]2 [A,,A,]2 | %3
 [D,A,]2 [B,,A,]2 [C,A,]2 [D,D]2 | [E,C]4 [E,B,]2 [E,G,]2 | [A,,A,]3 [A,,A,] [A,,E,]2 [A,,E,]2 | %6
 [A,,E,]2 (F,G,) [A,,A,]2 [A,,A,]2 | [D,A,]2 [B,,B,]2 [C,A,]2 (DC) | %8
 [E,B,]4 !fermata![A,,C]2 [A,,C]2 | [E,B,]3 [E,C] [E,D]2 [E,D]2 | [A,C]3 [A,D] [A,E]2 [A,E]2 | %11
 [E,E]2 [E,E]2 [E,E]2 [E,E]2 | [E,E]4 E2 ([C,G,][B,,G,]) | [A,,A,]3 [A,,A,] [B,,G,]2 [C,A,]2 | %14
 A,2 A,2 A,2 ([A,,A,][A,,A,]) | [D,A,]2 [B,,B,]2 [C,A,]2 (DC) | [E,B,]4 !fermata![A,,C]2 || %17
 [A,,C][A,,C] | [E,B,]2 [E,D]4 [E,D][E,D] | [A,C]2 [A,E]4 [A,E][A,E] | %20
 [E,E]2 [E,E]2 [E,E]2 [E,E]2 | [E,E]4 E2 ([C,A,][B,,G,]) | [A,,A,]3 [A,,A,] [B,,G,]2 [C,A,]2 | %23
 A,2 A,2 A,2 [A,,A,][A,,A,] | [D,A,]2 [B,,B,]2 [C,A,]2 (DC) | [E,B,]4 [A,,C]2 |] %26
V:4
 x2 | x8 | x2 A,,2 x4 | x8 | x8 | x8 | x2 A,,2 x4 | x6 D,2 | x8 | x8 | x8 | x8 | x4 (E,D,) x2 | %13
 x8 | (D,E,) (F,G,) A,2 x2 | x6 D,2 | x6 || x2 | x8 | x8 | x8 | x4 (E,D,) x2 | x8 | %23
 (D,E,)F,G, A,2 x2 | x6 D,2 | x6 |] %26

